images/ask.svg

<svg preserveAspectRatio="xMidYMid meet" viewBox="0 0 38.218 38.247" xmlns="http://www.w3.org/2000/svg"><path d="m189.99 97.04-10.05 3.149 3.121-10.049a18.592 18.592 0 0 1 -2.491-9.359 18.794 18.794 0 1 1 18.78 18.779 18.562 18.562 0 0 1 -9.36-2.52zm27.569-16.29a18.195 18.195 0 1 0 -33.839 9.33l-2.88 9.21 9.21-2.91a18.019 18.019 0 0 0 9.3 2.58 18.2 18.2 0 0 0 18.209-18.21zm-24.209-1.05a1.043 1.043 0 0 0 -1.05 1.049 1.062 1.062 0 0 0 1.05 1.05 1.043 1.043 0 0 0 1.049-1.05 1.025 1.025 0 0 0 -1.049-1.049zm6 0a1.043 1.043 0 0 0 -1.05 1.049 1.062 1.062 0 0 0 1.05 1.05 1.043 1.043 0 0 0 1.049-1.05 1.025 1.025 0 0 0 -1.049-1.049zm6 0a1.043 1.043 0 0 0 -1.05 1.05 1.062 1.062 0 0 0 1.051 1.05 1.043 1.043 0 0 0 1.049-1.05 1.025 1.025 0 0 0 -1.05-1.05z" fill="#fff" transform="translate(-179.94 -61.942)"/></svg>

<svg xmlns="http://www.w3.org/2000/svg" viewBox="0 0 38.218 38.247" preserveAspectRatio="xMidYMid meet">
  <g id="bubble003_-_E0EE" data-name="bubble003 - E0EE" transform="translate(-179.94 -61.942)" style="isolation: isolate">
    <g id="Group_662" data-name="Group 662" style="isolation: isolate">
      <path id="Path_1553" data-name="Path 1553" d="M189.99,97.04l-10.05,3.149,3.121-10.049a18.592,18.592,0,0,1-2.491-9.359A18.794,18.794,0,1,1,199.35,99.56,18.562,18.562,0,0,1,189.99,97.04Zm27.569-16.29a18.195,18.195,0,1,0-33.839,9.33l-2.88,9.21,9.21-2.91a18.019,18.019,0,0,0,9.3,2.58A18.2,18.2,0,0,0,217.559,80.75ZM193.35,79.7a1.043,1.043,0,0,0-1.05,1.049,1.062,1.062,0,0,0,1.05,1.05,1.043,1.043,0,0,0,1.049-1.05A1.025,1.025,0,0,0,193.35,79.7Zm6,0a1.043,1.043,0,0,0-1.05,1.049,1.062,1.062,0,0,0,1.05,1.05,1.043,1.043,0,0,0,1.049-1.05A1.025,1.025,0,0,0,199.35,79.7Zm6,0A1.043,1.043,0,0,0,204.3,80.75a1.062,1.062,0,0,0,1.051,1.05,1.043,1.043,0,0,0,1.049-1.05A1.025,1.025,0,0,0,205.35,79.7Z" fill="#fff"/>
    </g>
  </g>
</svg>
